resources/svg/google-drive-o.svg

<svg xmlns="http://www.w3.org/2000/svg" viewBox="0 0 15 15" fill="none"><path d="M5 1.5l-4.5 8 2 4M5 1.5l2.5 4-5 8M5 1.5h5l4.5 8M5 1.5l5 8h4.5m-12 4l2.5-4h9.5m-12 4h10l2-4" stroke="currentColor" stroke-linejoin="round"/></svg>

<svg xmlns="http://www.w3.org/2000/svg" viewBox="0 0 15 15" fill="none"><path d="M5 1.5L0.5 9.5L2.5 13.5M5 1.5L7.5 5.5L2.5 13.5M5 1.5H10L14.5 9.5M5 1.5L10 9.5H14.5M2.5 13.5L5 9.5H14.5M2.5 13.5H12.5L14.5 9.5" stroke="black" stroke-linejoin="round"/></svg>
